Catalina-dark/actions/16/transform-affect-rounded-corners.svg

<?xml version="1.0" encoding="UTF-8" standalone="no"?>
<svg
   xmlns:dc="http://purl.org/dc/elements/1.1/"
   xmlns:cc="http://creativecommons.org/ns#"
   xmlns:rdf="http://www.w3.org/1999/02/22-rdf-syntax-ns#"
   xmlns:svg="http://www.w3.org/2000/svg"
   xmlns="http://www.w3.org/2000/svg"
   xmlns:sodipodi="http://sodipodi.sourceforge.net/DTD/sodipodi-0.dtd"
   xmlns:inkscape="http://www.inkscape.org/namespaces/inkscape"
   width="16"
   height="16"
   viewBox="0 0 16 16"
   version="1.1"
   id="svg7"
   sodipodi:docname="transform-affect-rounded-corners.svg"
   inkscape:version="0.92.4 5da689c313, 2019-01-14">
  <metadata
     id="metadata11">
    <rdf:RDF>
      <cc:Work
         rdf:about="">
        <dc:format>image/svg+xml</dc:format>
        <dc:type
           rdf:resource="http://purl.org/dc/dcmitype/StillImage" />
      </cc:Work>
    </rdf:RDF>
  </metadata>
  <sodipodi:namedview
     pagecolor="#ffffff"
     bordercolor="#666666"
     borderopacity="1"
     objecttolerance="10"
     gridtolerance="10"
     guidetolerance="10"
     inkscape:pageopacity="0"
     inkscape:pageshadow="2"
     inkscape:window-width="640"
     inkscape:window-height="480"
     id="namedview9"
     showgrid="false"
     inkscape:zoom="14.75"
     inkscape:cx="6.8135593"
     inkscape:cy="8"
     inkscape:window-x="0"
     inkscape:window-y="26"
     inkscape:window-maximized="0"
     inkscape:current-layer="svg7" />
  <defs
     id="defs3">
    <style
       id="current-color-scheme"
       type="text/css">
   .ColorScheme-Text { color:#5c616c; } .ColorScheme-Highlight { color:#5294e2; }
  </style>
  </defs>
  <path
     style="fill:#f1f6f8;fill-opacity:0.8509804"
     class="ColorScheme-Text"
     d="M 2.5078125 2 A 0.5 0.5 0 0 0 2.5078125 3 L 8.0039062 3 C 9.6576063 3 10.893656 3.4668344 11.722656 4.2402344 C 12.550656 5.0137344 13 6.111 13 7.5 A 0.5 0.5 0 0 0 14 7.5 C 14 5.889 13.450297 4.4862656 12.404297 3.5097656 C 11.359297 2.5331656 9.8481063 2 8.0039062 2 L 2.5078125 2 z M 2.5078125 5 A 0.5 0.5 0 0 0 2.5078125 6 L 6.5039062 6 C 7.6865062 6 8.4147031 6.2364375 8.8457031 6.6484375 C 9.2767031 7.0605375 9.5019531 7.7231813 9.5019531 8.8007812 A 0.5 0.5 0 0 0 10.501953 8.8007812 C 10.501953 7.5783812 10.227956 6.5886813 9.5351562 5.9257812 C 8.8417562 5.2627812 7.8198062 5 6.5039062 5 L 2.5078125 5 z M 11.007812 9.0136719 L 11.007812 11.007812 L 9.0058594 11.007812 L 9.0058594 12.003906 L 11.007812 12.003906 L 11.007812 14 L 14.011719 11.505859 L 11.007812 9.0136719 z M 4 10.992188 L 4 12.021484 L 5 12.021484 L 5 10.992188 L 4 10.992188 z M 6.0175781 10.992188 L 6.0175781 12.021484 L 6.5019531 12.021484 L 7.5039062 12.021484 L 7.9882812 12.021484 L 7.9882812 10.992188 L 7.5039062 10.992188 L 6.5019531 10.992188 L 6.0175781 10.992188 z"
     id="path5" />
</svg>

<svg width="16" height="16" version="1.1" viewBox="0 0 16 16" xmlns="http://www.w3.org/2000/svg">
<defs>
<style id="current-color-scheme" type="text/css">.ColorScheme-Text { color:#5c616c; } .ColorScheme-Highlight { color:#5294e2; }</style>
</defs>
<path class="ColorScheme-Text" d="m2.5078 2a0.5 0.5 0 0 0 0 1h5.4961c1.6537 0 2.8897 0.46683 3.7187 1.2402 0.828 0.7735 1.2773 1.8708 1.2773 3.2598a0.5 0.5 0 0 0 1 0c0-1.611-0.5497-3.0137-1.5957-3.9902-1.045-0.9766-2.5562-1.5098-4.4004-1.5098h-5.4961zm0 3a0.5 0.5 0 0 0 0 1h3.9961c1.1826 0 1.9108 0.23644 2.3418 0.64844 0.431 0.4121 0.65625 1.0747 0.65625 2.1523a0.5 0.5 0 0 0 1 0c0-1.2224-0.274-2.2121-0.9668-2.875-0.6934-0.663-1.7154-0.92578-3.0312-0.92578h-3.9961zm8.5 4.0137v1.9941h-2.002v0.99609h2.002v1.9961l3.0039-2.4941-3.0039-2.4922zm-7.0078 1.9785v1.0293h1v-1.0293h-1zm2.0176 0v1.0293h0.48438 1.002 0.48438v-1.0293h-0.48438-1.002-0.48438z" fill="#f1f6f8" fill-opacity=".85098"/>
</svg>
